icons/gitea-light.svg

<svg width="256" height="256" viewBox="0 0 256 256" fill="none" xmlns="http://www.w3.org/2000/svg">
<path d="M196 0H60C26.8629 0 0 26.8629 0 60V196C0 229.137 26.8629 256 60 256H196C229.137 256 256 229.137 256 196V60C256 26.8629 229.137 0 196 0Z" fill="#F4F2ED"/>
<path d="M152.153 174.529L111.78 155.122C107.803 153.213 106.085 148.377 108.026 144.369L127.433 103.995C129.342 100.018 134.178 98.3003 138.186 100.241C143.658 102.882 146.808 104.377 146.808 104.377L146.776 69.6348L152.089 69.603L152.121 106.859C152.121 106.859 170.383 114.558 178.56 119.616C179.737 120.348 181.805 121.78 182.664 124.198C183.332 126.139 183.3 128.366 182.346 130.338L162.938 170.712C160.966 174.752 156.13 176.47 152.153 174.529Z" fill="white"/>
<path d="M224.309 68.1396C223.005 66.8352 221.255 66.867 221.255 66.867C221.255 66.867 183.968 68.9668 164.656 69.4122C160.425 69.5076 156.225 69.6031 152.057 69.6349C152.057 82.0746 152.057 94.5143 152.057 106.922C150.307 106.095 148.526 105.236 146.776 104.409C146.776 92.8281 146.744 69.6667 146.744 69.6667C137.518 69.794 118.365 68.9668 118.365 68.9668C118.365 68.9668 73.3785 66.7079 68.4789 66.2625C65.361 66.0716 61.3205 65.5944 56.071 66.7397C53.3031 67.3124 45.413 69.094 38.9545 75.298C24.6377 88.0558 28.2964 108.354 28.7418 111.408C29.2827 115.131 30.9371 125.47 38.8272 134.474C53.3986 152.322 84.7683 151.909 84.7683 151.909C84.7683 151.909 88.6179 161.103 94.5037 169.566C102.457 180.097 110.634 188.305 118.588 189.292C138.631 189.292 178.687 189.26 178.687 189.26C178.687 189.26 182.504 189.292 187.69 185.983C192.144 183.279 196.121 178.538 196.121 178.538C196.121 178.538 200.225 174.148 205.952 164.126C207.702 161.04 209.165 158.049 210.438 155.218C210.438 155.218 228 117.962 228 81.6928C227.65 70.7166 224.946 68.7759 224.309 68.1396ZM66.1564 133.074C57.9163 130.37 54.4166 127.125 54.4166 127.125C54.4166 127.125 48.3399 122.862 45.2857 114.462C40.0362 100.4 44.8403 91.81 44.8403 91.81C44.8403 91.81 47.5128 84.6516 57.0891 82.2655C61.4796 81.0883 66.9518 81.2792 66.9518 81.2792C66.9518 81.2792 69.2107 100.177 71.9468 111.249C74.2375 120.539 79.8369 135.969 79.8369 135.969C79.8369 135.969 71.5332 134.983 66.1564 133.074ZM161.697 167.307C161.697 167.307 159.757 171.921 155.461 172.207C153.616 172.334 152.185 171.825 152.185 171.825C152.185 171.825 152.089 171.793 150.498 171.157L114.579 153.659C114.579 153.659 111.111 151.845 110.507 148.695C109.807 146.118 111.366 142.937 111.366 142.937L128.641 107.336C128.641 107.336 130.168 104.25 132.523 103.2C132.714 103.104 133.255 102.882 133.954 102.723C136.531 102.055 139.681 103.613 139.681 103.613L174.901 120.698C174.901 120.698 178.909 122.512 179.768 125.852C180.373 128.207 179.609 130.306 179.196 131.324C177.191 136.224 161.697 167.307 161.697 167.307Z" fill="#609926"/>
<path d="M130.169 141.41C127.56 141.442 125.269 143.255 124.665 145.801C124.06 148.346 125.301 150.986 127.56 152.164C130.01 153.436 133.127 152.736 134.782 150.446C136.404 148.187 136.15 145.069 134.209 143.096L141.845 127.475C142.322 127.507 143.022 127.539 143.817 127.316C145.122 127.03 146.076 126.171 146.076 126.171C147.412 126.743 148.812 127.38 150.276 128.111C151.803 128.875 153.235 129.67 154.539 130.434C154.825 130.593 155.112 130.784 155.43 131.038C155.939 131.452 156.512 132.025 156.925 132.788C157.53 134.538 156.321 137.529 156.321 137.529C155.589 139.947 150.467 150.446 150.467 150.446C147.89 150.382 145.599 152.036 144.835 154.422C144.008 156.999 145.185 159.926 147.667 161.199C150.148 162.472 153.203 161.74 154.825 159.513C156.416 157.349 156.289 154.327 154.475 152.323C155.08 151.145 155.653 149.968 156.257 148.727C157.848 145.419 160.552 139.056 160.552 139.056C160.838 138.515 162.366 135.779 161.411 132.279C160.616 128.652 157.402 126.966 157.402 126.966C153.521 124.453 148.112 122.13 148.112 122.13C148.112 122.13 148.112 120.826 147.762 119.871C147.412 118.885 146.872 118.249 146.522 117.867C148.017 114.781 149.512 111.727 151.007 108.64C149.703 108.004 148.43 107.368 147.126 106.7C145.599 109.818 144.04 112.967 142.513 116.085C140.381 116.053 138.409 117.199 137.391 119.076C136.309 121.08 136.532 123.562 137.995 125.375C135.386 130.72 132.777 136.065 130.169 141.41Z" fill="#609926"/>
</svg>

<svg xmlns="http://www.w3.org/2000/svg" width="256" height="256" fill="none"><path fill="#F4F2ED" d="M196 0H60C26.863 0 0 26.863 0 60v136c0 33.137 26.863 60 60 60h136c33.137 0 60-26.863 60-60V60c0-33.137-26.863-60-60-60"/><path fill="#fff" d="m152.153 174.529-40.373-19.407c-3.977-1.909-5.695-6.745-3.754-10.753l19.407-40.374c1.909-3.977 6.745-5.695 10.753-3.754 5.472 2.641 8.622 4.136 8.622 4.136l-.032-34.742 5.313-.032.032 37.256s18.262 7.699 26.439 12.757c1.177.732 3.245 2.164 4.104 4.582.668 1.941.636 4.168-.318 6.14l-19.408 40.374c-1.972 4.04-6.808 5.758-10.785 3.817"/><path fill="#609926" d="M224.309 68.14c-1.304-1.305-3.054-1.273-3.054-1.273s-37.287 2.1-56.599 2.545c-4.231.096-8.431.191-12.599.223v37.287c-1.75-.827-3.531-1.686-5.281-2.513 0-11.58-.032-34.742-.032-34.742-9.226.127-28.379-.7-28.379-.7s-44.986-2.26-49.886-2.704c-3.118-.191-7.158-.669-12.408.477-2.768.572-10.658 2.354-17.116 8.558-14.317 12.758-10.659 33.056-10.213 36.11.54 3.723 2.195 14.062 10.085 23.066 14.572 17.848 45.941 17.435 45.941 17.435s3.85 9.194 9.736 17.657c7.953 10.531 16.13 18.739 24.084 19.726 20.043 0 60.099-.032 60.099-.032s3.817.032 9.003-3.277c4.454-2.704 8.431-7.445 8.431-7.445s4.104-4.39 9.831-14.412c1.75-3.086 3.213-6.077 4.486-8.908 0 0 17.562-37.256 17.562-73.525-.35-10.976-3.054-12.917-3.691-13.553M66.156 133.074c-8.24-2.704-11.74-5.949-11.74-5.949s-6.076-4.263-9.13-12.663c-5.25-14.062-.446-22.652-.446-22.652s2.673-7.158 12.25-9.544c4.39-1.178 9.862-.987 9.862-.987s2.259 18.898 4.995 29.97c2.29 9.29 7.89 24.72 7.89 24.72s-8.304-.986-13.68-2.895m95.541 34.233s-1.94 4.614-6.236 4.9c-1.845.127-3.276-.382-3.276-.382s-.096-.032-1.687-.668l-35.919-17.498s-3.468-1.814-4.072-4.964c-.7-2.577.859-5.758.859-5.758l17.275-35.601s1.527-3.086 3.882-4.136a7 7 0 0 1 1.431-.477c2.577-.668 5.727.89 5.727.89l35.22 17.085s4.008 1.814 4.867 5.154c.605 2.355-.159 4.454-.572 5.472-2.005 4.9-17.499 35.983-17.499 35.983"/><path fill="#609926" d="M130.169 141.41c-2.609.032-4.9 1.845-5.504 4.391-.605 2.545.636 5.185 2.895 6.363 2.45 1.272 5.567.572 7.222-1.718a5.74 5.74 0 0 0-.573-7.35l7.636-15.621c.477.032 1.177.064 1.972-.159 1.305-.286 2.259-1.145 2.259-1.145a79 79 0 0 1 4.2 1.94 74 74 0 0 1 4.263 2.323c.286.159.573.35.891.604.509.414 1.082.987 1.495 1.75.605 1.75-.604 4.741-.604 4.741-.732 2.418-5.854 12.917-5.854 12.917-2.577-.064-4.868 1.59-5.632 3.976-.827 2.577.35 5.504 2.832 6.777s5.536.541 7.158-1.686c1.591-2.164 1.464-5.186-.35-7.19a186 186 0 0 0 1.782-3.596c1.591-3.308 4.295-9.671 4.295-9.671.286-.541 1.814-3.277.859-6.777-.795-3.627-4.009-5.313-4.009-5.313-3.881-2.513-9.29-4.836-9.29-4.836s0-1.304-.35-2.259c-.35-.986-.89-1.622-1.24-2.004 1.495-3.086 2.99-6.14 4.485-9.227a219 219 0 0 1-3.881-1.94c-1.527 3.118-3.086 6.267-4.613 9.385a5.72 5.72 0 0 0-5.122 2.991 5.71 5.71 0 0 0 .604 6.299z"/></svg>
